public/assets/icons/file-document-light.svg

<svg width="241" height="118" viewBox="0 0 241 118" fill="none" xmlns="http://www.w3.org/2000/svg">
<path d="M15 60C15 32.3858 37.3858 10 65 10H241V118H15V60Z" fill="#F2F4F8"/>
<g opacity="0.4" filter="url(#filter0_f_228_4096)">
<circle cx="48" cy="48" r="33" fill="#FF7474"/>
</g>
<circle cx="48" cy="43" r="33" fill="#FF7474"/>
<path d="M57.9146 32.3806C58.091 32.6578 57.7888 32.9808 57.4684 32.908V32.908C56.8417 32.7213 56.1484 32.628 55.4417 32.628H51.1003C50.8536 32.628 50.6212 32.5119 50.473 32.3147L48.9751 30.3213V30.3213C48.7873 30.0552 48.9648 29.668 49.2905 29.668H52.9617C55.0431 29.668 56.8765 30.7489 57.9146 32.3806Z" fill="white"/>
<path d="M58.8546 35.7213C58.2813 35.308 57.628 35.0013 56.9213 34.828C56.4413 34.6946 55.948 34.628 55.4413 34.628H50.4813C49.708 34.628 49.6546 34.5613 49.2413 34.0146L47.3746 31.5346C46.508 30.3746 45.828 29.668 43.6546 29.668H40.5613C37.308 29.668 34.668 32.308 34.668 35.5613V50.4413C34.668 53.6946 37.308 56.3346 40.5613 56.3346H55.4413C58.6946 56.3346 61.3346 53.6946 61.3346 50.4413V40.5213C61.3346 38.5346 60.3613 36.788 58.8546 35.7213ZM51.188 48.788H44.8013C44.2813 48.788 43.8813 48.3746 43.8813 47.8546C43.8813 47.348 44.2813 46.9213 44.8013 46.9213H51.188C51.708 46.9213 52.1213 47.348 52.1213 47.8546C52.1213 48.3746 51.708 48.788 51.188 48.788Z" fill="white"/>
<mask id="mask0_228_4096" style="mask-type:alpha" maskUnits="userSpaceOnUse" x="15" y="32" width="226" height="86">
<rect x="15" y="32" width="226" height="86" fill="#D9D9D9"/>
</mask>
<g mask="url(#mask0_228_4096)">
<path d="M15.1325 132.681V114.105C14.3273 105.471 16.2976 88.3456 46.836 86.2132C74.8842 84.2548 80.8534 80.3014 95.5529 54.5306C107.653 33.3174 126.126 32.9157 143.043 32.5477C145.259 32.4995 147.449 32.4519 149.594 32.3582C160.963 31.8613 198.081 31.802 223.5 32.0005C252 32 241 29.7101 241 40.5007V224.287C241 235.175 232.146 244.001 221.225 244.001H34.775C23.8536 244.001 15 235.175 15 224.287V132.681H15.1325Z" fill="white"/>
</g>
<defs>
<filter id="filter0_f_228_4096" x="0.875" y="0.875" width="94.25" height="94.25" filterUnits="userSpaceOnUse" color-interpolation-filters="sRGB">
<feFlood flood-opacity="0" result="BackgroundImageFix"/>
<feBlend mode="normal" in="SourceGraphic" in2="BackgroundImageFix" result="shape"/>
<feGaussianBlur stdDeviation="7.0625" result="effect1_foregroundBlur_228_4096"/>
</filter>
</defs>
</svg>

<svg xmlns="http://www.w3.org/2000/svg" width="241" height="118" fill="none"><path fill="#F2F4F8" d="M15 60c0-27.614 22.386-50 50-50h176v108H15z"/><g filter="url(#a)" opacity=".4"><circle cx="48" cy="48" r="33" fill="#FF7474"/></g><circle cx="48" cy="43" r="33" fill="#FF7474"/><path fill="#fff" d="M57.915 32.38c.176.278-.126.6-.447.528a7.2 7.2 0 0 0-2.026-.28H51.1a.79.79 0 0 1-.627-.313l-1.498-1.994c-.188-.266-.01-.653.316-.653h3.67a5.86 5.86 0 0 1 4.954 2.713"/><path fill="#fff" d="M58.855 35.721a5.6 5.6 0 0 0-1.934-.893q-.72-.2-1.48-.2h-4.96c-.773 0-.826-.067-1.24-.613l-1.866-2.48c-.867-1.16-1.547-1.867-3.72-1.867H40.56a5.895 5.895 0 0 0-5.893 5.893v14.88a5.895 5.895 0 0 0 5.893 5.894h14.88a5.895 5.895 0 0 0 5.894-5.894v-9.92a5.85 5.85 0 0 0-2.48-4.8m-7.667 13.067h-6.387a.916.916 0 0 1-.92-.933c0-.507.4-.934.92-.934h6.387c.52 0 .933.427.933.934 0 .52-.413.933-.933.933"/><mask id="b" width="226" height="86" x="15" y="32" maskUnits="userSpaceOnUse" style="mask-type:alpha"><path fill="#D9D9D9" d="M15 32h226v86H15z"/></mask><g mask="url(#b)"><path fill="#fff" d="M15.133 132.681v-18.576c-.806-8.634 1.165-25.76 31.703-27.892 28.048-1.958 34.017-5.912 48.717-31.682 12.1-21.214 30.573-21.615 47.49-21.983 2.216-.049 4.406-.096 6.551-.19 11.369-.497 48.487-.556 73.906-.357C252 32 241 29.71 241 40.5v183.786c0 10.888-8.854 19.714-19.775 19.714H34.775c-10.921 0-19.775-8.826-19.775-19.714v-91.606z"/></g><defs><filter id="a" width="94.25" height="94.25" x=".875" y=".875" color-interpolation-filters="sRGB" filterUnits="userSpaceOnUse"><feFlood flood-opacity="0" result="BackgroundImageFix"/><feBlend in="SourceGraphic" in2="BackgroundImageFix" result="shape"/><feGaussianBlur result="effect1_foregroundBlur_228_4096" stdDeviation="7.063"/></filter></defs></svg>
